X:1
T:[ID 6-56]
T:[ID 6-56]
T:Bezeichnung standardisiert: Menuett Menuet Primo
T:Urheber unbekannt Erstbeleg: 1775 (Datum in der schriftlichen Quelle) Datum in der hier transkribierten schriftlichen Quelle: 1799
C:Urheber unbekannt
C:Erstbeleg: 1775 (Datum in der schriftlichen Quelle)
C:Datum in der hier transkribierten schriftlichen Quelle: 1799
%%score 1 2
L:1/8
M:3/4
K:G
V:1 treble nm="Primo"
V:2 treble nm="Secondo"
V:1
 GB d2 d2 | d2 BGcA | d2 BGcA | d4 e2 | fdge^cA | fdge^cA | fdge^cA | d6 :: Bc d2 d2 | c2 ec A2 | %10
 B2 dB G2 | FGAF D2 | BGcAFD | BGcAFD | AcBAGF | G6 :| %16
V:2
 !fermata!B,G B2 B2 | B2 GEAF | B2 GEAF | B4 c2 | dBecAF | dBecAF | cedGFE | F6 :: GA B2 B2 | %9
 A2 cA F2 | G2 BG B,2 | DEFD B,2 | GEAFDB, | GEAFDB, | FAGCB,A, | B,6 :| %16

